X: 40917
T: Trip To Athlone, The
R: jig
M: 6/8
K: Dmajor
|ABA D2 d|dcA AGE|ABA ABc|dA/A/B cde|
ABA DED|dcA AGE|GE/F/G Ade|{a}fdc d2c|
ABA Dd/d/d|dcA AGE|ABA AB/B/c|dAB cde|
ABA D2 d|dcA AGE|~G3 Ade|f/e/dc d2 e||
{a}fed edc|A2 d cde|fed edc|ABc def|
ge/f/g age|dcA AGE|GFG Ade|fdc d2e|
fed edc|Add cde|{a}fed edc|ABc def|
~g3 age|dcA AGE|GE/F/G Ade|fdc d2c||

